icons/Lightbulbicons.svg

<svg width="16" height="16" viewBox="0 0 16 16" fill="currentColor" xmlns="http://www.w3.org/2000/svg">
<g clip-path="url(#clip0_4_2066)">
<path d="M9.64347 13.12C9.52173 13.12 9.39999 12.992 9.39999 12.864C9.39999 12.224 9.82608 11.712 10.313 11.008C10.9826 10.112 11.7739 9.088 11.7739 7.616C11.7739 6.976 11.713 6.4 11.5304 5.888C11.4696 5.76 11.5304 5.632 11.6522 5.568C11.7739 5.504 11.8956 5.568 11.9565 5.696C12.1391 6.272 12.2609 6.912 12.2609 7.552C12.2609 9.216 11.4087 10.368 10.6783 11.264C10.2522 11.84 9.82608 12.352 9.82608 12.8C9.88695 12.992 9.76521 13.12 9.64347 13.12Z" fill="#3D3D3D"/>
<path d="M6.78261 13.12C6.66087 13.12 6.6 13.056 6.53913 12.928C6.41739 11.904 5.93044 11.264 5.44348 10.624C4.83479 9.856 4.22609 9.024 4.22609 7.488C4.22609 4.864 5.86957 3.072 8.30435 3.072C9.27826 3.072 10.1913 3.392 10.8609 4.032C10.9826 4.096 10.9826 4.288 10.8609 4.352C10.8 4.48 10.6174 4.48 10.5565 4.352C9.94783 3.776 9.15652 3.52 8.30435 3.52C6.11305 3.52 4.65218 5.12 4.65218 7.488C4.65218 8.832 5.2 9.536 5.74783 10.304C6.29565 11.008 6.78261 11.712 6.96522 12.864C7.02609 12.928 6.96522 13.056 6.78261 13.12Z" fill="#3D3D3D"/>
<path d="M6.90435 14.272C6.78261 14.272 6.72174 14.208 6.66087 14.08C6.66087 13.952 6.72174 13.824 6.84348 13.824L9.33913 13.376C9.46087 13.376 9.58261 13.44 9.58261 13.568C9.58261 13.696 9.52174 13.824 9.4 13.824L6.90435 14.272C6.96522 14.272 6.96522 14.208 6.90435 14.272Z" fill="#3D3D3D"/>
<path d="M7.2087 14.976C7.08696 14.976 7.02609 14.912 6.96523 14.784C6.96523 14.656 7.02609 14.528 7.14783 14.528L9.33914 14.08C9.46088 14.08 9.58262 14.144 9.58262 14.272C9.58262 14.4 9.52175 14.528 9.40001 14.528L7.2087 14.976Z" fill="#3D3D3D"/>
<path d="M7.63479 15.744C7.51305 15.744 7.45218 15.68 7.39131 15.552C7.39131 15.424 7.45218 15.296 7.57392 15.296L9.27827 14.976C9.40001 14.976 9.52175 15.04 9.52175 15.168C9.52175 15.296 9.46088 15.424 9.33914 15.424L7.63479 15.744Z" fill="#3D3D3D"/>
<path d="M8.24348 2.56C8.12174 2.56 8 2.432 8 2.304V0.639999C8 0.511999 8.12174 0.383999 8.24348 0.383999C8.36522 0.383999 8.48696 0.511999 8.48696 0.639999V2.304C8.48696 2.432 8.36522 2.56 8.24348 2.56Z" fill="#3D3D3D"/>
<path d="M14.6957 7.488H13.113C12.9913 7.488 12.8696 7.36 12.8696 7.232C12.8696 7.104 12.9913 6.976 13.113 6.976H14.6957C14.8174 6.976 14.9391 7.104 14.9391 7.232C14.9391 7.36 14.8174 7.488 14.6957 7.488Z" fill="#3D3D3D"/>
<path d="M3.37392 7.424H1.79131C1.66957 7.424 1.54783 7.296 1.54783 7.168C1.54783 7.04 1.66957 6.912 1.79131 6.912H3.37392C3.49565 6.912 3.61739 7.04 3.61739 7.168C3.61739 7.296 3.49565 7.424 3.37392 7.424Z" fill="#3D3D3D"/>
<path d="M4.5913 3.712C4.53043 3.712 4.53043 3.712 4.46956 3.648L3.13043 2.752C3.06956 2.688 3.00869 2.56 3.06956 2.432C3.13043 2.304 3.25217 2.304 3.37391 2.368L4.71304 3.264C4.83478 3.328 4.83478 3.456 4.77391 3.584C4.71304 3.712 4.65217 3.712 4.5913 3.712Z" fill="#3D3D3D"/>
<path d="M11.7739 3.712C11.713 3.712 11.6522 3.648 11.5913 3.584C11.5304 3.456 11.5304 3.328 11.6522 3.264L12.9913 2.368C13.113 2.304 13.2348 2.304 13.2956 2.432C13.3565 2.56 13.3565 2.688 13.2348 2.752L11.8956 3.648C11.8956 3.712 11.8348 3.712 11.7739 3.712Z" fill="#3D3D3D"/>
<path d="M3.00869 11.776C2.94783 11.776 2.88696 11.712 2.82609 11.648C2.76522 11.52 2.82609 11.392 2.88696 11.328L4.22609 10.432C4.34783 10.368 4.46956 10.368 4.53043 10.496C4.5913 10.624 4.5913 10.752 4.46956 10.816L3.13043 11.712C3.13043 11.712 3.06956 11.776 3.00869 11.776Z" fill="#3D3D3D"/>
<path d="M13.6609 11.648C13.6 11.648 13.6 11.648 13.5391 11.584L12.2 10.688C12.0783 10.624 12.0783 10.496 12.1391 10.368C12.2 10.24 12.3217 10.24 12.4435 10.304L13.7826 11.2C13.9044 11.264 13.9044 11.392 13.8435 11.52C13.7826 11.584 13.7217 11.648 13.6609 11.648Z" fill="#3D3D3D"/>
</g>
<defs>
<clipPath id="clip0_4_2066">
<rect width="14" height="16" fill="white" transform="translate(1)"/>
</clipPath>
</defs>
</svg>

<svg xmlns="http://www.w3.org/2000/svg" width="16" height="16" fill="currentColor" class="si si-Lightbulbicons" viewBox="0 0 16 16">
  <g clip-path="url(#a)">
    <path d="M9.643 13.12c-.121 0-.243-.128-.243-.256 0-.64.426-1.152.913-1.856.67-.896 1.46-1.92 1.46-3.392 0-.64-.06-1.216-.243-1.728-.06-.128 0-.256.122-.32s.244 0 .305.128c.182.576.304 1.216.304 1.856 0 1.664-.852 2.816-1.583 3.712-.426.576-.852 1.088-.852 1.536.061.192-.06.32-.183.32m-2.86 0c-.122 0-.183-.064-.244-.192-.122-1.024-.609-1.664-1.096-2.304-.608-.768-1.217-1.6-1.217-3.136 0-2.624 1.644-4.416 4.078-4.416.974 0 1.887.32 2.557.96.122.064.122.256 0 .32a.169.169 0 0 1-.305 0c-.608-.576-1.4-.832-2.252-.832-2.191 0-3.652 1.6-3.652 3.968 0 1.344.548 2.048 1.096 2.816.548.704 1.035 1.408 1.217 2.56.061.064 0 .192-.182.256m.121 1.152c-.121 0-.182-.064-.243-.192 0-.128.06-.256.182-.256l2.496-.448c.122 0 .244.064.244.192s-.061.256-.183.256zc.061 0 .061-.064 0 0m.305.704c-.122 0-.183-.064-.244-.192 0-.128.061-.256.183-.256l2.191-.448c.122 0 .244.064.244.192s-.061.256-.183.256zm.426.768c-.122 0-.183-.064-.244-.192 0-.128.061-.256.183-.256l1.704-.32c.122 0 .244.064.244.192s-.061.256-.183.256zM8.243 2.56C8.122 2.56 8 2.432 8 2.304V.64c0-.128.122-.256.243-.256.122 0 .244.128.244.256v1.664c0 .128-.122.256-.244.256m6.453 4.928h-1.583c-.122 0-.243-.128-.243-.256s.121-.256.243-.256h1.583c.121 0 .243.128.243.256s-.122.256-.243.256M3.374 7.424H1.79c-.121 0-.243-.128-.243-.256s.122-.256.243-.256h1.583c.122 0 .243.128.243.256s-.121.256-.243.256m1.218-3.712c-.06 0-.06 0-.121-.064l-1.34-.896c-.06-.064-.121-.192-.06-.32.06-.128.182-.128.304-.064l1.339.896c.122.064.122.192.06.32-.06.128-.12.128-.182.128m7.183 0c-.061 0-.122-.064-.183-.128-.06-.128-.06-.256.061-.32l1.34-.896c.121-.064.243-.064.304.064.06.128.06.256-.061.32l-1.34.896c0 .064-.06.064-.121.064m-8.765 8.064c-.061 0-.122-.064-.183-.128-.06-.128 0-.256.061-.32l1.34-.896c.12-.064.243-.064.303.064.061.128.061.256-.06.32l-1.34.896s-.06.064-.121.064m10.651-.128c-.06 0-.06 0-.12-.064l-1.34-.896c-.122-.064-.122-.192-.06-.32.06-.128.182-.128.303-.064l1.34.896c.121.064.121.192.06.32-.06.064-.121.128-.182.128"/>
  </g>
  <defs>
    <clipPath id="a">
      <path d="M1 0h14v16H1z"/>
    </clipPath>
  </defs>
</svg>
